X:1
T:Jesus, Savior, We Implore Thee
T:Jesus, Savior, We Implore Thee
T:Arthur E. Johnstone
T:Frances Jane (Fanny) Crosby, 1885
T:Public Domain Courtesy of the Cyber Hymnal™
C:Arthur E. Johnstone
Z:Public Domain
Z:Courtesy of the Cyber Hymnal™
%%score ( 1 2 ) ( 3 4 )
L:1/8
Q:1/4=105
M:4/4
K:F
V:1 treble 
V:2 treble 
V:3 bass 
V:4 bass 
V:1
 [FA]2 G2 F2 C2 | D2 [DF]2 [EG]2 [DFA]2 | [DGB]2 ([DA]2 [B,DG]2) [B,D]2 | E2 [EG]2 [FA]2 [GB]2 | %4
w: 1.~Je- sus, Sav- ior,|we im- plore Thee,|Hear Thy now be-|fore Thee, For Thy|
w: 2.~Meek- ly now Thy|Word re- ceiv- ing,|In Thy name be-|liev- ing, Earth- ly|
w: 3.~In our weak- ness,|Lord, be- friend us,|From the power de-|fend us, May the|
 c2 A2 [DFG]2 [Ed]2 | c2 A2 [EG]2 [DF]2 | E2 [EG]2 A2 [Ac]2 | e3 z d [Ec]4 | %8
w: good- ness we a-|dore Thee, Still our|hearts in safe- ty|keep. While Thy|
w: plea- sures glad- ly|leav- ing, Help us,|Lord, to fol- low|Thee. Hop- ing,|
w: shin- ing ones at-|tend us When we|wake, and when we|sleep. Peace- ful|
 D2 [^CE]2 [DF]2 [D-B]2 | A2 G2 F2 E2 x2 | D2 [^CE]2 [DF]2 [Fd]2 | c2 B2 A2 G2 x2 | %12
w: mer- cy we are|plead- ing, Thou in|Heav’n art in- ter-|ced- ing; Lead us|
w: trust- ing, ne’er re-|pin- ing, All to|Thee by faith re-|sign- ing, In Thy|
w: in Thy strength a-|bid- ing, Joy- ful|in Thy love con-|fid- ing; Where the|
 F2 [EG]2 [FA]2 [CE]2 x2 | D2 [^CE]2 [B,DF]2 [DFG]2 | [CFA]2 G2 F2 [B,C]2 | %15
w: where Thy flocks are|feed- ing, Gen- tle|Shep- herd, lead Thy|
w: gra- cious arms re-|clin- ing, Thy dis-|ci- ples we would|
w: liv- ing streams are|glid- ing, Bless- èd|Sav- ior, lead Thy|
 [A,C-F]2 [B,C-G]2 [A,CF]8 |] %16
w: sheep. * *|
w: be. * *|
w: sheep. * *|
V:2
 [A,-C]8 | A,8 | B,4 x4 | [B,C]4 C4 | [CF]4 x4 | F4 C4 | C4 D4 | (A2 G4) x3 | B,6 x2 | D4 ^C4 x2 | %10
 D2 x6 | F4 E4 x2 | D6 x4 | B,4 x4 | x2 C4 x2 | x12 |] %16
V:3
 [F,,C,F,]8- | [F,,C,F,]8 | [F,,D,G,]8 | [F,,C,G,]4 C2 B,2 | A,4 B,4 | A,2 C2 B,2 A,2 | %6
 [C,G,]4 [A,,^F,C]4 | [G,,G,=B,]4 [G,C]4 x | G,6 F,2 | E,4 z2 A,2 G,2 | F,4 B,2 A,2 | %11
 G,4 z2 C2 B,2 | A,6 z2 G,2 | F,8- | F,2 B,2 A,2 G,2 | [F,,C,]12 |] %16
V:4
 x8 | x8 | x8 | x4 C,4 | C,8- | C,8 | x8 | x4 C,2 C,,2 x | G,,8 | A,,2 A,,4 x4 | B,,8 | %11
 C,2 C,6 x2 | D,4 A,,4 x2 | B,,6 =B,,2 | C,8- | x12 |] %16

